X: 13091
T: Fiona's Tune
R: waltz
M: 3/4
K: Dmajor
|:A2|d4 F2|G4 B2|A4 C2|D4 F2|G4 B2|A4 F2|A2 G2 F2|E4 A2|
d4 F2|G4 B2|A2 c2 e2|d4 F2|G2 B2 e2|A2 c2 e2|(d6|d4):|
|:A2|B4 d2|c4 F2|B2 d2 c2|B4 E2|A4 c2|B4 E2|A2 c2 B2|A4 A2|
d4 F2|G4 B2|A4 C2|D4 F2|G2 B2 e2|A2 c2 e2|(d6|d4):|

